assets/svg/userProfile/sky/cloud2.svg

<?xml version="1.0" encoding="UTF-8" standalone="no"?>
<svg
   width="140"
   height="67"
   viewBox="0 0 140 67"
   fill="none"
   version="1.1"
   id="svg3"
   sodipodi:docname="cloud2.svg"
   inkscape:version="1.3 (0e150ed6c4, 2023-07-21)"
   xmlns:inkscape="http://www.inkscape.org/namespaces/inkscape"
   xmlns:sodipodi="http://sodipodi.sourceforge.net/DTD/sodipodi-0.dtd"
   xmlns="http://www.w3.org/2000/svg"
   xmlns:svg="http://www.w3.org/2000/svg">
  <defs
     id="defs3" />
  <sodipodi:namedview
     id="namedview3"
     pagecolor="#505050"
     bordercolor="#eeeeee"
     borderopacity="1"
     inkscape:showpageshadow="0"
     inkscape:pageopacity="0"
     inkscape:pagecheckerboard="0"
     inkscape:deskcolor="#505050"
     inkscape:zoom="9.3453237"
     inkscape:cx="70.035027"
     inkscape:cy="33.546189"
     inkscape:window-width="1920"
     inkscape:window-height="1057"
     inkscape:window-x="1912"
     inkscape:window-y="-8"
     inkscape:window-maximized="1"
     inkscape:current-layer="svg3" />
  <mask
     id="path-1-inside-1_3_43"
     fill="#ffffff">
    <path
       fill-rule="evenodd"
       clip-rule="evenodd"
       d="M 14.2564,8.00001 C 14.2564,3.58173 17.8381,0 22.2564,0 h 95.9126 c 4.419,0 8,3.58172 8,8 v 2.8706 H 131 c 4.418,0 8,3.5817 8,8 v 26.7059 c 0,4.4183 -3.582,8 -8,8 H 111.2 V 58 c 0,4.4183 -3.582,8 -8,8 H 8 C 3.58172,66 0,62.4183 0,58 V 35.1765 c 0,-4.4183 3.58172,-8 8,-8 h 6.2564 z"
       id="path1" />
  </mask>
  <path
     fill-rule="evenodd"
     clip-rule="evenodd"
     d="m 14.7564,8.50001 c 0,-4.41828 3.5817,-8.00001 8,-8.00001 h 95.9126 c 4.419,0 8,3.58172 8,8 v 2.8706 h 4.831 c 4.418,0 8,3.5817 8,8 v 26.7059 c 0,4.4183 -3.582,8 -8,8 H 111.7 V 58.5 c 0,4.4183 -3.582,8 -8,8 H 8.5 c -4.41828,0 -8,-3.5817 -8,-8 V 35.6765 c 0,-4.4183 3.58172,-8 8,-8 h 6.2564 z"
     fill="#ffffff"
     id="path2"
     style="stroke:#000000;stroke-opacity:1" />
</svg>

<svg width="139" height="66" viewBox="0 0 139 66" fill="none" xmlns="http://www.w3.org/2000/svg">
<mask id="path-1-inside-1_3_43" fill="white">
<path fill-rule="evenodd" clip-rule="evenodd" d="M14.2564 8.00001C14.2564 3.58173 17.8381 0 22.2564 0H118.169C122.588 0 126.169 3.58172 126.169 8V10.8706H131C135.418 10.8706 139 14.4523 139 18.8706V45.5765C139 49.9948 135.418 53.5765 131 53.5765H111.2V58C111.2 62.4183 107.618 66 103.2 66H8C3.58172 66 0 62.4183 0 58V35.1765C0 30.7582 3.58172 27.1765 8 27.1765H14.2564V8.00001Z"/>
</mask>
<path fill-rule="evenodd" clip-rule="evenodd" d="M14.2564 8.00001C14.2564 3.58173 17.8381 0 22.2564 0H118.169C122.588 0 126.169 3.58172 126.169 8V10.8706H131C135.418 10.8706 139 14.4523 139 18.8706V45.5765C139 49.9948 135.418 53.5765 131 53.5765H111.2V58C111.2 62.4183 107.618 66 103.2 66H8C3.58172 66 0 62.4183 0 58V35.1765C0 30.7582 3.58172 27.1765 8 27.1765H14.2564V8.00001Z" fill="white"/>
<path d="M126.169 10.8706H125.169V11.8706H126.169V10.8706ZM111.2 53.5765V52.5765H110.2V53.5765H111.2ZM14.2564 27.1765V28.1765H15.2564V27.1765H14.2564ZM22.2564 -1C17.2858 -1 13.2564 3.02944 13.2564 8.00001H15.2564C15.2564 4.13401 18.3904 1 22.2564 1V-1ZM118.169 -1H22.2564V1H118.169V-1ZM127.169 8C127.169 3.02944 123.14 -1 118.169 -1V1C122.035 1 125.169 4.13401 125.169 8H127.169ZM127.169 10.8706V8H125.169V10.8706H127.169ZM126.169 11.8706H131V9.87059H126.169V11.8706ZM131 11.8706C134.866 11.8706 138 15.0046 138 18.8706H140C140 13.9 135.971 9.87059 131 9.87059V11.8706ZM138 18.8706V45.5765H140V18.8706H138ZM138 45.5765C138 49.4425 134.866 52.5765 131 52.5765V54.5765C135.971 54.5765 140 50.547 140 45.5765H138ZM131 52.5765H111.2V54.5765H131V52.5765ZM112.2 58V53.5765H110.2V58H112.2ZM103.2 67C108.171 67 112.2 62.9706 112.2 58H110.2C110.2 61.866 107.066 65 103.2 65V67ZM8 67H103.2V65H8V67ZM-1 58C-1 62.9706 3.02944 67 8 67V65C4.13401 65 1 61.866 1 58H-1ZM-1 35.1765V58H1V35.1765H-1ZM8 26.1765C3.02944 26.1765 -1 30.2059 -1 35.1765H1C1 31.3105 4.13401 28.1765 8 28.1765V26.1765ZM14.2564 26.1765H8V28.1765H14.2564V26.1765ZM13.2564 8.00001V27.1765H15.2564V8.00001H13.2564Z" fill="black" mask="url(#path-1-inside-1_3_43)"/>
</svg>
